public/payments/crypto/arbitrum.svg

<svg width="21" height="21" viewBox="0 0 21 21" fill="none" xmlns="http://www.w3.org/2000/svg">
<g clip-path="url(#clip0_258_166)">
<path d="M1.89832 6.384V14.616C1.89832 15.1452 2.17552 15.624 2.63752 15.8928L9.76911 20.0088C10.2227 20.2692 10.7855 20.2692 11.2391 20.0088L18.3707 15.8928C18.8243 15.6324 19.1099 15.1452 19.1099 14.616V6.384C19.1099 5.8548 18.8327 5.376 18.3707 5.1072L11.2391 0.991198C10.7855 0.730798 10.2227 0.730798 9.76911 0.991198L2.63752 5.1072C2.18392 5.3676 1.90672 5.8548 1.90672 6.384H1.89832Z" fill="#213147"/>
<path d="M12.054 12.096L11.0376 14.8848C11.0124 14.9604 11.0124 15.0444 11.0376 15.1284L12.7848 19.9248L14.8092 18.7572L12.3816 12.096C12.3228 11.9448 12.1128 11.9448 12.054 12.096Z" fill="#12AAFF"/>
<path d="M14.0952 7.4088C14.0364 7.2576 13.8264 7.2576 13.7676 7.4088L12.7512 10.1976C12.726 10.2732 12.726 10.3572 12.7512 10.4412L15.6156 18.2952L17.64 17.1276L14.0952 7.4172V7.4088Z" fill="#12AAFF"/>
<path d="M10.4999 1.302C10.5503 1.302 10.6007 1.3188 10.6427 1.344L18.3539 5.796C18.4463 5.8464 18.4967 5.9472 18.4967 6.048V14.952C18.4967 15.0528 18.4379 15.1536 18.3539 15.204L10.6427 19.656C10.6007 19.6812 10.5503 19.698 10.4999 19.698C10.4495 19.698 10.3991 19.6812 10.3571 19.656L2.64595 15.204C2.55355 15.1536 2.50315 15.0528 2.50315 14.952V6.0396C2.50315 5.9388 2.56195 5.838 2.64595 5.7876L10.3571 1.3356C10.3991 1.3104 10.4495 1.2936 10.4999 1.2936V1.302ZM10.4999 0C10.2227 0 9.95395 0.0672 9.70195 0.21L1.99075 4.662C1.49515 4.9476 1.19275 5.4684 1.19275 6.0396V14.9436C1.19275 15.5148 1.49515 16.0356 1.99075 16.3212L9.70195 20.7732C9.94555 20.916 10.2227 20.9832 10.4999 20.9832C10.7771 20.9832 11.0459 20.916 11.2979 20.7732L19.0091 16.3212C19.5047 16.0356 19.8071 15.5148 19.8071 14.9436V6.0396C19.8071 5.4684 19.5047 4.9476 19.0091 4.662L11.2895 0.21C11.0459 0.0672 10.7687 0 10.4915 0H10.4999Z" fill="#9DCCED"/>
<path d="M5.3927 18.3036L6.1067 16.3548L7.5347 17.5392L6.1991 18.7656L5.3927 18.3036Z" fill="#213147"/>
<path d="M9.84481 5.4096H7.88761C7.74481 5.4096 7.61041 5.502 7.56001 5.6364L3.36841 17.1276L5.39281 18.2952L10.0128 5.6364C10.0548 5.5188 9.97081 5.4012 9.85321 5.4012L9.84481 5.4096Z" fill="white"/>
<path d="M13.272 5.4096H11.3148C11.172 5.4096 11.0376 5.502 10.9872 5.6364L6.19922 18.7572L8.22362 19.9248L13.4316 5.6364C13.4736 5.5188 13.3896 5.4012 13.272 5.4012V5.4096Z" fill="white"/>
</g>
<defs>
<clipPath id="clip0_258_166">
<rect width="21" height="21" fill="white"/>
</clipPath>
</defs>
</svg>

<svg xmlns="http://www.w3.org/2000/svg" width="21" height="21" fill="none"><g clip-path="url(#a)"><path fill="#213147" d="M1.9 6.38v8.24c0 .53.28 1 .74 1.27l7.13 4.12c.45.26 1.02.26 1.47 0l7.13-4.12c.45-.26.74-.74.74-1.27V6.38c0-.53-.28-1-.74-1.27L11.24.99a1.48 1.48 0 0 0-1.47 0L2.64 5.11c-.46.26-.73.74-.73 1.27H1.9Z"/><path fill="#12AAFF" d="m12.05 12.1-1.01 2.78a.4.4 0 0 0 0 .25l1.74 4.8 2.03-1.17-2.43-6.66a.18.18 0 0 0-.33 0ZM14.1 7.4a.18.18 0 0 0-.33 0l-1.02 2.8a.4.4 0 0 0 0 .24l2.87 7.86 2.02-1.17-3.54-9.71V7.4Z"/><path fill="#9DCCED" d="M10.5 1.3c.05 0 .1.02.14.04l7.71 4.46c.1.05.15.15.15.25v8.9c0 .1-.06.2-.15.25l-7.7 4.46a.28.28 0 0 1-.15.04.28.28 0 0 1-.14-.04L2.65 15.2a.29.29 0 0 1-.15-.25V6.04c0-.1.06-.2.15-.25l7.7-4.45c.05-.03.1-.05.15-.05v.01Zm0-1.3c-.28 0-.55.07-.8.21L2 4.66c-.5.29-.8.8-.8 1.38v8.9c0 .57.3 1.1.8 1.38l7.7 4.45c.25.15.52.21.8.21s.55-.06.8-.2l7.7-4.46c.5-.28.8-.8.8-1.38v-8.9c0-.57-.3-1.1-.8-1.38L11.3.21a1.58 1.58 0 0 0-.8-.21h.01Z"/><path fill="#213147" d="m5.4 18.3.7-1.95 1.43 1.19-1.33 1.23-.8-.47Z"/><path fill="#fff" d="M9.84 5.41H7.9c-.15 0-.28.1-.33.23l-4.2 11.49L5.4 18.3l4.62-12.66a.17.17 0 0 0-.16-.24v.01ZM13.27 5.41h-1.96c-.14 0-.27.1-.32.23l-4.8 13.12 2.03 1.16 5.21-14.28a.17.17 0 0 0-.16-.24v.01Z"/></g><defs><clipPath id="a"><path fill="#fff" d="M0 0h21v21H0z"/></clipPath></defs></svg>
